X:79
T:Threshers, The
M:6/8
L:1/8
B:Thompson's Compleat Collection of 200 Favourite Country Dances, vol. 2 (London, 1765)
Z:Transcribed and edited by Flynn Titford-Mock, 2007
Z:abc's:AK/Fiddler's Companion
K:D
D | AFB Gec | d2D AFB | GEC D2 :: c/d/ | ecA ^geg | a2A ece | =gec d2 :|
|: d | [Dd][Dd][Dd] [Dd][Dd][Dd] | ee{ef}g fcd | [Dd][Dd][Dd] [Dd][Dd][Dd] | eec d2 :|
|: f/g/ | aaa afd | ggg gec || [Dd][Dd][Dd] [Dd][Dd][Dd] || eec d2 :|

